static/speakerdeck-logo.svg

<?xml version="1.0" encoding="UTF-8"?>
<svg width="26px" height="16px" viewBox="0 0 26 16" version="1.1" xmlns="http://www.w3.org/2000/svg" xmlns:xlink="http://www.w3.org/1999/xlink">
    <!-- Generator: Sketch 51.1 (57501) - http://www.bohemiancoding.com/sketch -->
    <title>speakerdeck-logo</title>
    <desc>Created with Sketch.</desc>
    <defs></defs>
    <g id="Symbols" stroke="none" stroke-width="1" fill="none" fill-rule="evenodd">
        <g id="speakerdeck-logo" fill="#86939E" fill-rule="nonzero">
            <path d="M10.6932331,10 L5,10 C2.23857624,10 0,7.76142376 0,5 C0,2.23857624 2.23857624,0 5,0 L11.6421053,0 C12.7466748,0 13.6421053,0.89543048 13.6421053,2 C13.6421053,3.10456952 12.7466748,4 11.6421053,4 L4.8977444,4 C4.3454596,4 3.8977444,4.44771528 3.8977444,5 C3.8977444,5.55228472 4.3454596,6 4.8977444,6 L10.5909774,6 C13.3524012,6 15.5909774,8.23857624 15.5909774,11 C15.5909774,13.7614238 13.3524012,16 10.5909774,16 L2,16 C0.89543048,16 0,15.1045695 0,14 C0,12.8954305 0.89543048,12 2,12 L10.6932331,12 C11.2455178,12 11.6932331,11.5522847 11.6932331,11 C11.6932331,10.4477153 11.2455178,10 10.6932331,10 Z M14.9013633,16 C16.231303,15.1005667 17.1818454,13.666797 17.4567639,12 L20.6843433,12 C21.2273117,12 21.6674746,11.5522847 21.6674746,11 L21.6674746,5 C21.6674746,4.44771528 21.2273117,4 20.6843433,4 L14.8210526,4 C15.2880793,3.46924352 15.5720602,2.7683544 15.5720602,2 C15.5720602,1.2316456 15.2880793,0.53075648 14.8210526,0 L21.6674746,0 C23.8393484,0 25.6,1.79086104 25.6,4 L25.6,12 C25.6,14.209139 23.8393484,16 21.6674746,16 L14.9013633,16 Z" id="mark"></path>
        </g>
    </g>
</svg>

<svg width="26" height="16" viewBox="0 0 26 16" xmlns="http://www.w3.org/2000/svg"><title>speakerdeck-logo</title><path d="M10.693 10H5A5 5 0 0 1 5 0h6.642a2 2 0 0 1 0 4H4.898a1 1 0 0 0 0 2h5.693a5 5 0 0 1 0 10H2a2 2 0 0 1 0-4h8.693a1 1 0 0 0 0-2zm4.208 6a6.01 6.01 0 0 0 2.557-4h3.227a.992.992 0 0 0 .983-1V5c0-.552-.44-1-.983-1H14.82c.468-.53.752-1.232.752-2s-.284-1.47-.75-2h6.845C23.84 0 25.6 1.79 25.6 4v8c0 2.21-1.76 4-3.933 4H14.9z" fill="#86939E" fill-rule="nonzero"/></svg>
